odyssey2/_inc/system.svg

<svg xmlns="http://www.w3.org/2000/svg"><g fill="#fff"><path d="m.741 134.815c-.424-.318-.741-25.291-.741-55.45 0-48.36.212-54.921 1.693-56.402 1.376-1.482 6.138-1.693 35.344-1.693 29.312 0 33.968.211 35.344 1.693 1.481 1.481 1.693 7.725 1.481 56.825l-.317 55.238-36.085.318c-19.788.106-36.296-.106-36.719-.529zm45.608-10.159c.741-.846 1.27-10.053 1.482-24.233.317-26.031.635-26.984 9.1-31.005l4.445-2.011v-14.92c0-21.058 1.799-19.577-24.022-19.577-17.883 0-21.058.212-22.751 1.799-1.799 1.587-1.905 4.444-1.905 44.868v43.174l2.328 1.588c3.175 2.222 29.524 2.433 31.323.317z"/><path d="m84.656 133.545c-.635-1.376-1.058-20.529-1.058-55.026 0-51.641.106-53.122 2.116-55.133 2.011-2.01 3.492-2.116 28.889-2.116 30.053 0 31.64.423 39.048 8.042 6.984 7.302 7.196 8.889 7.196 50.582 0 36.826 0 37.143-2.54 42.54-1.376 2.857-4.55 7.09-6.984 9.206l-4.656 3.916h-30.371c-29.1 0-30.582-.106-31.64-2.011zm57.566-9.735c5.82-4.551 5.926-5.186 5.926-44.339 0-48.254.847-46.561-21.693-46.561-9.418 0-14.286.423-15.132 1.27-.953.952-1.27 12.275-1.27 44.656 0 38.836.212 43.492 1.799 45.291 1.481 1.693 3.492 1.905 14.603 1.905 11.534 0 13.228-.212 15.767-2.222z"/><path d="m191.111 133.862c-.317-.952-.635-11.216-.635-22.963v-21.269l-10.053-9.63-10.053-9.63v-22.857c0-24.656.318-26.243 5.715-26.243 4.55 0 4.867 1.481 4.867 20.952 0 11.323.424 19.259 1.164 20.635 1.482 3.069 8.572 9.418 15.556 14.18l5.503 3.81 5.608-3.81c2.963-2.011 7.725-5.926 10.582-8.466l4.974-4.761v-19.471c0-17.567.211-19.789 1.904-21.27 2.434-2.222 5.926-2.328 8.043-.106 1.481 1.376 1.693 5.185 1.693 24.656v23.175l-8.995 8.148c-4.973 4.55-9.735 9.524-10.582 11.217-1.27 2.328-1.587 7.619-1.587 24.233v21.164h-11.535c-9.523 0-11.64-.318-12.169-1.694z"/><path d="m246.138 133.862c-.318-.952-.635-8.042-.635-15.767 0-17.566-.106-17.46 12.169-17.46 11.746 0 12.169.529 12.169 12.698 0 12.381.318 12.699 13.122 12.699 6.138 0 10.159-.424 11.005-1.27.847-.847 1.27-6.773 1.27-19.577 0-16.931-.106-18.307-2.01-19.365-1.27-.635-10.053-1.058-21.27-1.058-20.741 0-24.551-.847-25.82-5.503-.318-1.375-.635-13.862-.635-27.83 0-21.376.317-25.821 1.693-27.831 1.587-2.328 1.799-2.328 31.005-2.328 26.138 0 29.63.211 30.9 1.799 1.058 1.164 1.587 5.926 1.798 16.296.318 13.545.212 14.709-1.798 16.72-3.069 3.068-6.879 2.857-9.524-.529-1.799-2.328-2.223-4.339-2.223-11.429 0-5.397-.529-9.206-1.269-9.947-.847-.847-6.561-1.27-18.519-1.27h-17.249l-1.164 2.963c-.634 1.693-.952 8.995-.74 17.989.317 13.545.529 15.344 2.328 16.72 1.693 1.164 6.666 1.481 22.963 1.481 11.534 0 21.693.318 22.645.635 4.233 1.694 4.762 5.503 4.762 32.381 0 14.18-.317 26.773-.635 28.149l-.635 2.328h-31.534c-27.725 0-31.64-.212-32.169-1.694z"/><path d="m321.27 133.862c-.318-.952-.635-8.042-.635-15.767 0-17.566-.106-17.46 12.169-17.46 11.429 0 12.17.846 12.17 13.968 0 11.217.211 11.429 13.545 11.429 13.121 0 12.91.423 12.91-20.424 0-22.328 1.693-20.846-23.81-20.846-20.423 0-24.762-.741-26.349-4.762-.318-.952-.635-13.757-.635-28.466 0-24.55.106-26.878 1.905-28.465 1.693-1.588 5.502-1.799 31.111-1.799 26.878 0 29.206.106 30.793 1.905 1.482 1.587 1.799 4.444 1.799 16.825 0 13.016-.211 15.026-1.904 16.508-2.646 2.434-6.879 2.222-9.313-.423-1.587-1.799-2.116-4.339-2.539-12.487l-.529-10.159-17.99-.317c-15.979-.212-18.095-.106-19.259 1.587-.952 1.27-1.376 6.561-1.376 17.46 0 21.376-1.904 19.894 25.82 19.894h21.482l2.857 2.752 2.751 2.857v27.302c0 14.92-.317 27.936-.635 28.888-.529 1.482-4.444 1.694-32.169 1.694s-31.64-.212-32.169-1.694z"/><path d="m396.402 133.862c-.317-.952-.635-25.82-.635-55.343 0-50.688.106-53.863 1.905-55.45 1.693-1.588 5.397-1.799 30.159-1.799 26.772 0 28.254.106 29.312 2.01 1.481 2.752 1.376 7.831-.212 9.418-.952.953-7.407 1.27-22.434 1.27-11.746 0-21.799.424-22.434.847-2.857 1.905-3.597 5.926-3.597 19.788 0 13.863.105 14.498 2.645 16.931 2.54 2.646 2.646 2.646 23.598 2.646 22.434 0 23.492.212 23.492 5.291 0 4.868-1.481 5.291-16.931 5.291-20.106 0-19.048-1.164-19.048 20.529 0 21.799-.846 20.741 16.297 20.741 8.888 0 13.227.423 15.449 1.587 3.069 1.587 4.868 4.974 3.704 6.878-.423.635-11.64 1.059-30.688 1.059-26.349 0-30.053-.212-30.582-1.694z"/><path d="m487.831 114.18c0-24.974.211-24.233-11.111-34.286-3.81-3.386-7.725-7.513-8.572-9.1-1.164-2.223-1.481-7.725-1.481-24.445 0-19.577.211-21.693 1.904-23.28 2.54-2.328 5.821-2.222 7.937.106 1.587 1.693 1.799 4.762 1.799 21.058v19.153l7.301 6.773c4.022 3.598 8.995 7.513 11.006 8.677l3.809 2.011 7.196-5.397c3.915-2.963 8.677-6.879 10.37-8.678l3.175-3.28.317-19.788c.212-12.275.741-20.212 1.482-21.164.635-.741 2.645-1.27 4.444-1.059l3.281.318.317 24.868.212 24.867-9.524 9.101-9.524 9.1v21.27c0 11.641-.317 21.905-.635 22.857-.529 1.376-2.645 1.694-12.169 1.694h-11.534z"/><path d="m546.032 58.413c0-8.995.529-17.143 1.27-19.26 3.174-9.523 9.523-13.545 21.269-13.65 4.022 0 7.09-.424 7.09-1.059 0-.634-5.608-1.058-14.814-1.058h-14.815v-5.291-5.291h16.825c15.238 0 17.037.212 19.471 2.117 3.81 3.068 5.503 8.571 3.915 13.227-1.904 5.714-5.502 7.937-12.91 7.937-13.016 0-16.719 4.127-16.719 19.047v8.466h21.693 21.693v5.291 5.291h-26.984-26.984z"/><path d="m557.672 56.508c.106-8.148 1.693-14.392 4.233-16.402 1.693-1.376 4.233-1.905 8.677-1.905 7.725 0 12.804-2.222 15.661-6.878 4.127-6.667 1.482-15.556-5.714-18.942-2.751-1.27-7.09-1.693-19.048-1.693h-15.449v-5.397-5.291l18.836.317c18.624.318 18.942.318 23.28 3.281 2.434 1.587 5.714 4.868 7.302 7.301 2.645 3.916 2.963 5.291 2.963 13.545s-.318 9.63-2.963 13.545c-4.339 6.667-10.159 10.053-17.99 10.582-12.91.847-8.571 2.328 6.984 2.328h15.556v5.291 5.291h-21.164-21.164z"/></g></svg>

<?xml version="1.0" encoding="utf-8"?>
<svg version="1.0" xmlns="http://www.w3.org/2000/svg">
  <path d="M 0.741 134.815 C 0.317 134.497 0 109.524 0 79.365 C 0 31.005 0.212 24.444 1.693 22.963 C 3.069 21.481 7.831 21.27 37.037 21.27 C 66.349 21.27 71.005 21.481 72.381 22.963 C 73.862 24.444 74.074 30.688 73.862 79.788 L 73.545 135.026 L 37.46 135.344 C 17.672 135.45 1.164 135.238 0.741 134.815 Z M 46.349 124.656 C 47.09 123.81 47.619 114.603 47.831 100.423 C 48.148 74.392 48.466 73.439 56.931 69.418 L 61.376 67.407 L 61.376 52.487 C 61.376 31.429 63.175 32.91 37.354 32.91 C 19.471 32.91 16.296 33.122 14.603 34.709 C 12.804 36.296 12.698 39.153 12.698 79.577 L 12.698 122.751 L 15.026 124.339 C 18.201 126.561 44.55 126.772 46.349 124.656 Z" style="fill: rgb(255, 255, 255);"/>
  <path d="M 84.656 133.545 C 84.021 132.169 83.598 113.016 83.598 78.519 C 83.598 26.878 83.704 25.397 85.714 23.386 C 87.725 21.376 89.206 21.27 114.603 21.27 C 144.656 21.27 146.243 21.693 153.651 29.312 C 160.635 36.614 160.847 38.201 160.847 79.894 C 160.847 116.72 160.847 117.037 158.307 122.434 C 156.931 125.291 153.757 129.524 151.323 131.64 L 146.667 135.556 L 116.296 135.556 C 87.196 135.556 85.714 135.45 84.656 133.545 Z M 142.222 123.81 C 148.042 119.259 148.148 118.624 148.148 79.471 C 148.148 31.217 148.995 32.91 126.455 32.91 C 117.037 32.91 112.169 33.333 111.323 34.18 C 110.37 35.132 110.053 46.455 110.053 78.836 C 110.053 117.672 110.265 122.328 111.852 124.127 C 113.333 125.82 115.344 126.032 126.455 126.032 C 137.989 126.032 139.683 125.82 142.222 123.81 Z" style="fill: rgb(255, 255, 255);"/>
  <path d="M 191.111 133.862 C 190.794 132.91 190.476 122.646 190.476 110.899 L 190.476 89.63 L 180.423 80 L 170.37 70.37 L 170.37 47.513 C 170.37 22.857 170.688 21.27 176.085 21.27 C 180.635 21.27 180.952 22.751 180.952 42.222 C 180.952 53.545 181.376 61.481 182.116 62.857 C 183.598 65.926 190.688 72.275 197.672 77.037 L 203.175 80.847 L 208.783 77.037 C 211.746 75.026 216.508 71.111 219.365 68.571 L 224.339 63.81 L 224.339 44.339 C 224.339 26.772 224.55 24.55 226.243 23.069 C 228.677 20.847 232.169 20.741 234.286 22.963 C 235.767 24.339 235.979 28.148 235.979 47.619 L 235.979 70.794 L 226.984 78.942 C 222.011 83.492 217.249 88.466 216.402 90.159 C 215.132 92.487 214.815 97.778 214.815 114.392 L 214.815 135.556 L 203.28 135.556 C 193.757 135.556 191.64 135.238 191.111 133.862 Z" style="fill: rgb(255, 255, 255);"/>
  <path d="M 246.138 133.862 C 245.82 132.91 245.503 125.82 245.503 118.095 C 245.503 100.529 245.397 100.635 257.672 100.635 C 269.418 100.635 269.841 101.164 269.841 113.333 C 269.841 125.714 270.159 126.032 282.963 126.032 C 289.101 126.032 293.122 125.608 293.968 124.762 C 294.815 123.915 295.238 117.989 295.238 105.185 C 295.238 88.254 295.132 86.878 293.228 85.82 C 291.958 85.185 283.175 84.762 271.958 84.762 C 251.217 84.762 247.407 83.915 246.138 79.259 C 245.82 77.884 245.503 65.397 245.503 51.429 C 245.503 30.053 245.82 25.608 247.196 23.598 C 248.783 21.27 248.995 21.27 278.201 21.27 C 304.339 21.27 307.831 21.481 309.101 23.069 C 310.159 24.233 310.688 28.995 310.899 39.365 C 311.217 52.91 311.111 54.074 309.101 56.085 C 306.032 59.153 302.222 58.942 299.577 55.556 C 297.778 53.228 297.354 51.217 297.354 44.127 C 297.354 38.73 296.825 34.921 296.085 34.18 C 295.238 33.333 289.524 32.91 277.566 32.91 L 260.317 32.91 L 259.153 35.873 C 258.519 37.566 258.201 44.868 258.413 53.862 C 258.73 67.407 258.942 69.206 260.741 70.582 C 262.434 71.746 267.407 72.063 283.704 72.063 C 295.238 72.063 305.397 72.381 306.349 72.698 C 310.582 74.392 311.111 78.201 311.111 105.079 C 311.111 119.259 310.794 131.852 310.476 133.228 L 309.841 135.556 L 278.307 135.556 C 250.582 135.556 246.667 135.344 246.138 133.862 Z" style="fill: rgb(255, 255, 255);"/>
  <path d="M 321.27 133.862 C 320.952 132.91 320.635 125.82 320.635 118.095 C 320.635 100.529 320.529 100.635 332.804 100.635 C 344.233 100.635 344.974 101.481 344.974 114.603 C 344.974 125.82 345.185 126.032 358.519 126.032 C 371.64 126.032 371.429 126.455 371.429 105.608 C 371.429 83.28 373.122 84.762 347.619 84.762 C 327.196 84.762 322.857 84.021 321.27 80 C 320.952 79.048 320.635 66.243 320.635 51.534 C 320.635 26.984 320.741 24.656 322.54 23.069 C 324.233 21.481 328.042 21.27 353.651 21.27 C 380.529 21.27 382.857 21.376 384.444 23.175 C 385.926 24.762 386.243 27.619 386.243 40 C 386.243 53.016 386.032 55.026 384.339 56.508 C 381.693 58.942 377.46 58.73 375.026 56.085 C 373.439 54.286 372.91 51.746 372.487 43.598 L 371.958 33.439 L 353.968 33.122 C 337.989 32.91 335.873 33.016 334.709 34.709 C 333.757 35.979 333.333 41.27 333.333 52.169 C 333.333 73.545 331.429 72.063 359.153 72.063 L 380.635 72.063 L 383.492 74.815 L 386.243 77.672 L 386.243 104.974 C 386.243 119.894 385.926 132.91 385.608 133.862 C 385.079 135.344 381.164 135.556 353.439 135.556 C 325.714 135.556 321.799 135.344 321.27 133.862 Z" style="fill: rgb(255, 255, 255);"/>
  <path d="M 396.402 133.862 C 396.085 132.91 395.767 108.042 395.767 78.519 C 395.767 27.831 395.873 24.656 397.672 23.069 C 399.365 21.481 403.069 21.27 427.831 21.27 C 454.603 21.27 456.085 21.376 457.143 23.28 C 458.624 26.032 458.519 31.111 456.931 32.698 C 455.979 33.651 449.524 33.968 434.497 33.968 C 422.751 33.968 412.698 34.392 412.063 34.815 C 409.206 36.72 408.466 40.741 408.466 54.603 C 408.466 68.466 408.571 69.101 411.111 71.534 C 413.651 74.18 413.757 74.18 434.709 74.18 C 457.143 74.18 458.201 74.392 458.201 79.471 C 458.201 84.339 456.72 84.762 441.27 84.762 C 421.164 84.762 422.222 83.598 422.222 105.291 C 422.222 127.09 421.376 126.032 438.519 126.032 C 447.407 126.032 451.746 126.455 453.968 127.619 C 457.037 129.206 458.836 132.593 457.672 134.497 C 457.249 135.132 446.032 135.556 426.984 135.556 C 400.635 135.556 396.931 135.344 396.402 133.862 Z" style="fill: rgb(255, 255, 255);"/>
  <path d="M 487.831 114.18 C 487.831 89.206 488.042 89.947 476.72 79.894 C 472.91 76.508 468.995 72.381 468.148 70.794 C 466.984 68.571 466.667 63.069 466.667 46.349 C 466.667 26.772 466.878 24.656 468.571 23.069 C 471.111 20.741 474.392 20.847 476.508 23.175 C 478.095 24.868 478.307 27.937 478.307 44.233 L 478.307 63.386 L 485.608 70.159 C 489.63 73.757 494.603 77.672 496.614 78.836 L 500.423 80.847 L 507.619 75.45 C 511.534 72.487 516.296 68.571 517.989 66.772 L 521.164 63.492 L 521.481 43.704 C 521.693 31.429 522.222 23.492 522.963 22.54 C 523.598 21.799 525.608 21.27 527.407 21.481 L 530.688 21.799 L 531.005 46.667 L 531.217 71.534 L 521.693 80.635 L 512.169 89.735 L 512.169 111.005 C 512.169 122.646 511.852 132.91 511.534 133.862 C 511.005 135.238 508.889 135.556 499.365 135.556 L 487.831 135.556 L 487.831 114.18 Z" style="fill: rgb(255, 255, 255);"/>
  <path d="M 546.032 58.413 C 546.032 49.418 546.561 41.27 547.302 39.153 C 550.476 29.63 556.825 25.608 568.571 25.503 C 572.593 25.503 575.661 25.079 575.661 24.444 C 575.661 23.81 570.053 23.386 560.847 23.386 L 546.032 23.386 L 546.032 18.095 L 546.032 12.804 L 562.857 12.804 C 578.095 12.804 579.894 13.016 582.328 14.921 C 586.138 17.989 587.831 23.492 586.243 28.148 C 584.339 33.862 580.741 36.085 573.333 36.085 C 560.317 36.085 556.614 40.212 556.614 55.132 L 556.614 63.598 L 578.307 63.598 L 600 63.598 L 600 68.889 L 600 74.18 L 573.016 74.18 L 546.032 74.18 L 546.032 58.413 Z" style="fill: rgb(255, 255, 255);"/>
  <path d="M 557.672 56.508 C 557.778 48.36 559.365 42.116 561.905 40.106 C 563.598 38.73 566.138 38.201 570.582 38.201 C 578.307 38.201 583.386 35.979 586.243 31.323 C 590.37 24.656 587.725 15.767 580.529 12.381 C 577.778 11.111 573.439 10.688 561.481 10.688 L 546.032 10.688 L 546.032 5.291 L 546.032 0 L 564.868 0.317 C 583.492 0.635 583.81 0.635 588.148 3.598 C 590.582 5.185 593.862 8.466 595.45 10.899 C 598.095 14.815 598.413 16.19 598.413 24.444 C 598.413 32.698 598.095 34.074 595.45 37.989 C 591.111 44.656 585.291 48.042 577.46 48.571 C 564.55 49.418 568.889 50.899 584.444 50.899 L 600 50.899 L 600 56.19 L 600 61.481 L 578.836 61.481 L 557.672 61.481 L 557.672 56.508 Z" style="fill: rgb(255, 255, 255);"/>
</svg>
